img/svgicons/select-arrow.svg

<svg width="14" height="9" viewBox="0 0 14 9" fill="none" xmlns="http://www.w3.org/2000/svg">
<path d="M7.57617 8.48812L13.009 2.56604C13.3971 2.15045 13.3971 1.52708 13.009 1.11149C12.6209 0.695908 12.0389 0.695908 11.6508 1.11149L6.80005 6.2024L1.9493 1.11149C1.56124 0.695908 0.979153 0.695908 0.591093 1.11149C0.397063 1.31928 0.300049 1.52708 0.300049 1.83877C0.300049 2.15045 0.397063 2.35825 0.591093 2.56604L6.02393 8.48812C6.509 8.9037 7.09109 8.9037 7.57617 8.48812C7.47915 8.48812 7.47915 8.48812 7.57617 8.48812Z" fill="#AAAAAA"/>
</svg>

<svg width="14" height="9" fill="none" xmlns="http://www.w3.org/2000/svg"><path d="m7.576 8.488 5.433-5.922a1.054 1.054 0 0 0 0-1.455c-.388-.415-.97-.415-1.358 0L6.8 6.202l-4.85-5.09C1.56.695.98.695.59 1.111a.976.976 0 0 0-.291.727c0 .311.097.52.291.727l5.433 5.922c.485.416 1.067.416 1.552 0-.097 0-.097 0 0 0Z" fill="#AAA"/></svg>
